X:192
T:Da Brig
C:Joe Buchanan's Scottish Tome - Page 275.3
I:275 3
Z:Carl Allison
R:Jig
L:1/8
M:4/8
K:D
A | f3 A3 | AFD D3 | d3 A2 F | D2 g fef |
f3 A3 | AFD D2 F | E2 F G2 A | d3 d2 :|
(3ABc | d2 e f2 d | c2 e ecA | d2 e f2 | g3 f2 g |
a2 f g2 | e | f2 d e2 c | d2 A F2 A | B3 B2 :|
W:Errata: Changed the lead-in notes for the B part to a triplet.
